resources/icons/16px/new-layer.svg

<svg xmlns="http://www.w3.org/2000/svg" viewBox="0 0 16 16">
  <path d="M13.9816 6.27235L15.5 7.14L15.49 7.15C15.79 7.32 16 7.63 16 8C16 8.37 15.79 8.68 15.49 8.85L15.5 8.86L8.5 12.86L8.49 12.85C8.34 12.94 8.18 13 8 13C7.82 13 7.66 12.94 7.51 12.85L7.5 12.86L0.5 8.86L0.51 8.85C0.21 8.68 0 8.37 0 8C0 7.63 0.21 7.32 0.51 7.14L0.5 7.13L7.5 3.13L7.51 3.15C7.66 3.06 7.82 3 8 3C8.08626 3 8.16793 3.01378 8.24611 3.03804C8.08923 3.32346 8 3.65131 8 4C8 5.10457 8.89543 6 10 6C10 7.10457 10.8954 8 12 8C13.0122 8 13.8488 7.24808 13.9816 6.27235ZM14 3C14.55 3 15 3.45 15 4C15 4.55 14.55 5 14 5H13V6C13 6.55 12.55 7 12 7C11.45 7 11 6.55 11 6V5H10C9.45 5 9 4.55 9 4C9 3.45 9.45 3 10 3H11V2C11 1.45 11.45 1 12 1C12.55 1 13 1.45 13 2V3H14Z" />
</svg>

<svg xmlns="http://www.w3.org/2000/svg" viewBox="0 0 16 16">
  <path d="m13.982 6.272 1.518.868-.01.01c.3.17.51.48.51.85s-.21.68-.51.85l.01.01-7 4-.01-.01A.94.94 0 0 1 8 13a.94.94 0 0 1-.49-.15l-.01.01-7-4 .01-.01A.98.98 0 0 1 0 8c0-.37.21-.68.51-.86L.5 7.13l7-4 .01.02A.94.94 0 0 1 8 3q.129.001.246.038a2 2 0 1 0 5.735 3.234M14 3c.55 0 1 .45 1 1s-.45 1-1 1h-1v1c0 .55-.45 1-1 1s-1-.45-1-1V5h-1c-.55 0-1-.45-1-1s.45-1 1-1h1V2c0-.55.45-1 1-1s1 .45 1 1v1z"/>
</svg>
